svgs/soundbound.svg

<svg width="192" height="192" viewBox="0 0 192 192" fill="none" xmlns="http://www.w3.org/2000/svg">
<path d="M100.956 23.7257C103.013 22.9216 104.03 20.6018 103.226 18.5441C102.422 16.4865 100.102 15.4703 98.0441 16.2743L100.956 23.7257ZM98.0441 16.2743C89.3782 19.6607 84.5561 27.898 82.9651 37.2279C81.3689 46.5879 82.8602 57.6416 87.3223 68.0732L94.6777 64.9268C90.7256 55.6878 89.5515 46.1939 90.8512 38.5727C92.156 30.9213 95.791 25.7439 100.956 23.7257L98.0441 16.2743Z" fill="black"/>
<path d="M99.7103 19.9999C110.675 30.0137 105.853 51.1154 90.9322 66.4482" stroke="black" stroke-width="8" stroke-linecap="round"/>
<path d="M94.1931 68.5425C95.5973 66.837 95.353 64.3162 93.6476 62.912C91.9421 61.5078 89.4213 61.7521 88.0171 63.4575L94.1931 68.5425ZM88.0171 63.4575C81.2445 71.6832 75.689 79.9584 71.8563 87.8429C68.0434 95.6863 65.8124 103.395 66.0124 110.406C66.2169 117.578 68.9819 123.948 74.8859 128.61C80.6366 133.152 88.9795 135.77 99.8402 136.491L100.37 128.509C90.3667 127.845 83.8372 125.485 79.844 122.332C76.0042 119.3 74.154 115.258 74.0091 110.178C73.8596 104.937 75.5449 98.5532 79.0512 91.3405C82.5375 84.1688 87.7039 76.424 94.1931 68.5425L88.0171 63.4575Z" fill="black"/>
<path d="M99 95.0002C128.212 90.5272 127.076 122.35 106 131.5" stroke="black" stroke-width="8"/>
<path d="M91 66C94.8447 92.8831 98.693 106.589 103 131.5" stroke="black" stroke-width="8"/>
<path d="M99 95C92.8621 96.7585 90.8549 98.1572 88.5 101M103 131.5C104.764 144.324 105.121 151.309 105 163.5" stroke="black" stroke-width="8" stroke-linecap="round"/>
<path d="M105 163.5C96.452 152.259 81 160 84.5 167.5" stroke="black" stroke-width="8" stroke-linecap="round"/>
<path d="M84 166.728C92.545 177.204 107.992 169.989 104.493 163" stroke="black" stroke-width="8" stroke-linecap="round"/>
<path d="M100 132.5C102.522 132.595 103.947 132.33 106.5 131.5" stroke="black" stroke-width="8" stroke-linecap="round"/>
</svg>

<svg width="192" height="192" viewBox="0 0 192 192" fill="none" xmlns="http://www.w3.org/2000/svg"><path d="M100.956 23.726a4 4 0 0 0-2.912-7.452l2.912 7.452Zm-2.912-7.452c-8.666 3.387-13.488 11.624-15.079 20.954-1.596 9.36-.105 20.414 4.357 30.845l7.356-3.146c-3.952-9.24-5.126-18.733-3.827-26.354 1.305-7.652 4.94-12.83 10.105-14.847l-2.912-7.452Z" fill="#000"/><path d="M99.71 20c10.965 10.014 6.143 31.115-8.778 46.448" stroke="#000" stroke-width="8" stroke-linecap="round"/><path d="M94.193 68.543a4 4 0 0 0-6.176-5.086l6.176 5.086Zm-6.176-5.086c-6.772 8.226-12.328 16.501-16.16 24.386-3.814 7.843-6.045 15.552-5.845 22.563.205 7.172 2.97 13.542 8.874 18.204 5.75 4.542 14.094 7.16 24.954 7.881l.53-7.982c-10.003-.664-16.533-3.024-20.526-6.177-3.84-3.032-5.69-7.074-5.835-12.154-.15-5.241 1.536-11.625 5.042-18.837 3.486-7.172 8.653-14.917 15.142-22.798l-6.176-5.086Z" fill="#000"/><path d="M99 95c29.212-4.473 28.076 27.35 7 36.5M91 66c3.845 26.883 7.693 40.589 12 65.5" stroke="#000" stroke-width="8"/><path d="M99 95c-6.138 1.758-8.145 3.157-10.5 6m14.5 30.5c1.764 12.824 2.121 19.809 2 32M105 163.5c-8.548-11.241-24-3.5-20.5 4" stroke="#000" stroke-width="8" stroke-linecap="round"/><path d="M84 166.728c8.545 10.476 23.992 3.261 20.493-3.728M100 132.5c2.522.095 3.947-.17 6.5-1" stroke="#000" stroke-width="8" stroke-linecap="round"/></svg>
